X:255
T:St. Mary\'is 
T:Church Street 
R:polka
M:2/4
L:1/4
K:G
D|:GB |AB/A/|Gg |e/f/ g/e/|dB |AG/A/|BA |G/E/ D/E/|
|GB |AB/A/|Gg |e/f/ g/e/|dB |AG/A/|BG|1 GD:|2 G3/2A/|
|:Bd |g3/2d/|Bd |g3/2d/|Bd| ge|f3/2g/|ag| e/f/ g/e/|
|dB| AG/A/|Be| d/B/ A|1 G3/2A:|2 G2|
